images/5459592.svg

<?xml version="1.0" encoding="UTF-8"?>
<svg xmlns="http://www.w3.org/2000/svg" xmlns:xlink="http://www.w3.org/1999/xlink" width="300pt" height="300pt" viewBox="0 0 300 300" version="1.1">
<defs>
<g>
<symbol overflow="visible" id="glyph0-0">
<path style="stroke:none;" d="M 0.453125 1.59375 L 0.453125 -6.34375 L 4.953125 -6.34375 L 4.953125 1.59375 Z M 0.953125 1.09375 L 4.453125 1.09375 L 4.453125 -5.84375 L 0.953125 -5.84375 Z M 0.953125 1.09375 "/>
</symbol>
<symbol overflow="visible" id="glyph0-1">
<path style="stroke:none;" d="M 0.890625 -6.5625 L 2.078125 -6.5625 L 4.984375 -1.078125 L 4.984375 -6.5625 L 5.84375 -6.5625 L 5.84375 0 L 4.65625 0 L 1.75 -5.484375 L 1.75 0 L 0.890625 0 Z M 0.890625 -6.5625 "/>
</symbol>
<symbol overflow="visible" id="glyph0-2">
<path style="stroke:none;" d="M 3.546875 -5.953125 C 2.898438 -5.953125 2.382812 -5.710938 2 -5.234375 C 1.625 -4.753906 1.4375 -4.101562 1.4375 -3.28125 C 1.4375 -2.445312 1.625 -1.789062 2 -1.3125 C 2.382812 -0.832031 2.898438 -0.59375 3.546875 -0.59375 C 4.191406 -0.59375 4.703125 -0.832031 5.078125 -1.3125 C 5.453125 -1.789062 5.640625 -2.445312 5.640625 -3.28125 C 5.640625 -4.101562 5.453125 -4.753906 5.078125 -5.234375 C 4.703125 -5.710938 4.191406 -5.953125 3.546875 -5.953125 Z M 3.546875 -6.6875 C 4.460938 -6.6875 5.195312 -6.375 5.75 -5.75 C 6.300781 -5.132812 6.578125 -4.3125 6.578125 -3.28125 C 6.578125 -2.238281 6.300781 -1.410156 5.75 -0.796875 C 5.195312 -0.179688 4.460938 0.125 3.546875 0.125 C 2.617188 0.125 1.878906 -0.179688 1.328125 -0.796875 C 0.773438 -1.410156 0.5 -2.238281 0.5 -3.28125 C 0.5 -4.3125 0.773438 -5.132812 1.328125 -5.75 C 1.878906 -6.375 2.617188 -6.6875 3.546875 -6.6875 Z M 3.546875 -6.6875 "/>
</symbol>
<symbol overflow="visible" id="glyph0-3">
<path style="stroke:none;" d="M 0.890625 -6.5625 L 1.765625 -6.5625 L 1.765625 -3.875 L 5 -3.875 L 5 -6.5625 L 5.890625 -6.5625 L 5.890625 0 L 5 0 L 5 -3.125 L 1.765625 -3.125 L 1.765625 0 L 0.890625 0 Z M 0.890625 -6.5625 "/>
</symbol>
</g>
</defs>
<g id="surface51533">
<rect x="0" y="0" width="300" height="300" style="fill:rgb(100%,100%,100%);fill-opacity:1;stroke:none;"/>
<path style=" stroke:none;fill-rule:nonzero;fill:rgb(0%,0%,0%);fill-opacity:1;" d="M 211.484375 114.660156 L 213.046875 94.1875 L 205.945312 94.890625 Z M 211.484375 114.660156 "/>
<path style="fill:none;stroke-width:1.2;stroke-linecap:butt;stroke-linejoin:miter;stroke:rgb(0%,0%,0%);stroke-opacity:1;stroke-miterlimit:10;" d="M 211.484375 114.660156 L 195.050781 126.441406 "/>
<path style="fill:none;stroke-width:1.2;stroke-linecap:butt;stroke-linejoin:miter;stroke:rgb(0%,0%,0%);stroke-opacity:1;stroke-miterlimit:10;" d="M 211.484375 114.660156 L 229.902344 123 "/>
<path style="fill:none;stroke-width:1.2;stroke-linecap:butt;stroke-linejoin:miter;stroke:rgb(0%,0%,0%);stroke-opacity:1;stroke-miterlimit:10;" d="M 195.050781 126.441406 L 176.632812 118.097656 "/>
<path style="fill:none;stroke-width:1.2;stroke-linecap:butt;stroke-linejoin:miter;stroke:rgb(0%,0%,0%);stroke-opacity:1;stroke-miterlimit:10;" d="M 195.171875 121.273438 L 180.4375 114.601562 "/>
<path style="fill:none;stroke-width:1.2;stroke-linecap:butt;stroke-linejoin:miter;stroke:rgb(0%,0%,0%);stroke-opacity:1;stroke-miterlimit:10;" d="M 176.632812 118.097656 L 174.648438 97.980469 "/>
<path style="fill:none;stroke-width:1.2;stroke-linecap:butt;stroke-linejoin:miter;stroke:rgb(0%,0%,0%);stroke-opacity:1;stroke-miterlimit:10;" d="M 176.632812 118.097656 L 160.203125 129.878906 "/>
<path style="fill:none;stroke-width:1.2;stroke-linecap:butt;stroke-linejoin:miter;stroke:rgb(0%,0%,0%);stroke-opacity:1;stroke-miterlimit:10;" d="M 174.648438 97.980469 L 191.078125 86.199219 "/>
<path style="fill:none;stroke-width:1.2;stroke-linecap:butt;stroke-linejoin:miter;stroke:rgb(0%,0%,0%);stroke-opacity:1;stroke-miterlimit:10;" d="M 173.519531 92.933594 L 186.664062 83.511719 "/>
<path style="fill:none;stroke-width:1.2;stroke-linecap:butt;stroke-linejoin:miter;stroke:rgb(0%,0%,0%);stroke-opacity:1;stroke-miterlimit:10;" d="M 156.230469 89.640625 L 174.648438 97.980469 "/>
<path style="fill:none;stroke-width:1.2;stroke-linecap:butt;stroke-linejoin:miter;stroke:rgb(0%,0%,0%);stroke-opacity:1;stroke-miterlimit:10;" d="M 191.078125 86.199219 L 190.085938 76.140625 "/>
<path style="fill:none;stroke-width:1.2;stroke-linecap:butt;stroke-linejoin:miter;stroke:rgb(0%,0%,100%);stroke-opacity:1;stroke-miterlimit:10;" d="M 190.085938 76.140625 L 189.09375 66.078125 "/>
<path style="fill:none;stroke-width:1.2;stroke-linecap:butt;stroke-linejoin:miter;stroke:rgb(0%,0%,100%);stroke-opacity:1;stroke-miterlimit:10;" d="M 189.09375 66.078125 L 179.882812 61.910156 "/>
<path style="fill:none;stroke-width:1.2;stroke-linecap:butt;stroke-linejoin:miter;stroke:rgb(0%,0%,0%);stroke-opacity:1;stroke-miterlimit:10;" d="M 179.882812 61.910156 L 170.675781 57.738281 "/>
<path style="fill:none;stroke-width:1.2;stroke-linecap:butt;stroke-linejoin:miter;stroke:rgb(0%,0%,100%);stroke-opacity:1;stroke-miterlimit:10;" d="M 185.289062 69.578125 L 177.921875 66.242188 "/>
<path style="fill:none;stroke-width:1.2;stroke-linecap:butt;stroke-linejoin:miter;stroke:rgb(0%,0%,0%);stroke-opacity:1;stroke-miterlimit:10;" d="M 177.921875 66.242188 L 170.554688 62.90625 "/>
<path style=" stroke:none;fill-rule:nonzero;fill:rgb(100%,100%,100%);fill-opacity:1;" d="M 186.09375 60.578125 L 193.09375 60.578125 L 193.09375 71.578125 L 186.09375 71.578125 Z M 186.09375 60.578125 "/>
<g style="fill:rgb(0%,0%,100%);fill-opacity:1;">
  <use xlink:href="#glyph0-1" x="186.09375" y="69.241211"/>
</g>
<path style="fill:none;stroke-width:1.2;stroke-linecap:butt;stroke-linejoin:miter;stroke:rgb(0%,0%,0%);stroke-opacity:1;stroke-miterlimit:10;" d="M 170.675781 57.738281 L 154.242188 69.519531 "/>
<path style="fill:none;stroke-width:1.2;stroke-linecap:butt;stroke-linejoin:miter;stroke:rgb(0%,0%,0%);stroke-opacity:1;stroke-miterlimit:10;" d="M 154.242188 69.519531 L 156.230469 89.640625 "/>
<path style="fill:none;stroke-width:1.2;stroke-linecap:butt;stroke-linejoin:miter;stroke:rgb(0%,0%,0%);stroke-opacity:1;stroke-miterlimit:10;" d="M 159.175781 71.0625 L 160.765625 87.160156 "/>
<path style="fill:none;stroke-width:1.2;stroke-linecap:butt;stroke-linejoin:miter;stroke:rgb(0%,0%,0%);stroke-opacity:1;stroke-miterlimit:10;" d="M 160.203125 129.878906 L 162.1875 150 "/>
<path style="fill:none;stroke-width:1.2;stroke-linecap:butt;stroke-linejoin:miter;stroke:rgb(0%,0%,0%);stroke-opacity:1;stroke-miterlimit:10;" d="M 160.203125 129.878906 L 150.992188 125.710938 "/>
<path style="fill:none;stroke-width:1.2;stroke-linecap:butt;stroke-linejoin:miter;stroke:rgb(0%,0%,100%);stroke-opacity:1;stroke-miterlimit:10;" d="M 150.992188 125.710938 L 141.785156 121.539062 "/>
<path style="fill:none;stroke-width:1.2;stroke-linecap:butt;stroke-linejoin:miter;stroke:rgb(0%,0%,0%);stroke-opacity:1;stroke-miterlimit:10;" d="M 162.1875 150 L 145.757812 161.78125 "/>
<path style="fill:none;stroke-width:1.2;stroke-linecap:butt;stroke-linejoin:miter;stroke:rgb(0%,0%,0%);stroke-opacity:1;stroke-miterlimit:10;" d="M 163.316406 155.042969 L 150.171875 164.46875 "/>
<path style="fill:none;stroke-width:1.2;stroke-linecap:butt;stroke-linejoin:miter;stroke:rgb(0%,0%,0%);stroke-opacity:1;stroke-miterlimit:10;" d="M 180.605469 158.339844 L 162.1875 150 "/>
<path style="fill:none;stroke-width:1.2;stroke-linecap:butt;stroke-linejoin:miter;stroke:rgb(0%,0%,0%);stroke-opacity:1;stroke-miterlimit:10;" d="M 145.757812 161.78125 L 147.742188 181.902344 "/>
<path style="fill:none;stroke-width:1.2;stroke-linecap:butt;stroke-linejoin:miter;stroke:rgb(0%,0%,0%);stroke-opacity:1;stroke-miterlimit:10;" d="M 147.742188 181.902344 L 166.160156 190.242188 "/>
<path style="fill:none;stroke-width:1.2;stroke-linecap:butt;stroke-linejoin:miter;stroke:rgb(0%,0%,0%);stroke-opacity:1;stroke-miterlimit:10;" d="M 151.546875 178.402344 L 166.28125 185.074219 "/>
<path style="fill:none;stroke-width:1.2;stroke-linecap:butt;stroke-linejoin:miter;stroke:rgb(0%,0%,0%);stroke-opacity:1;stroke-miterlimit:10;" d="M 166.160156 190.242188 L 182.589844 178.460938 "/>
<path style="fill:none;stroke-width:1.2;stroke-linecap:butt;stroke-linejoin:miter;stroke:rgb(0%,0%,0%);stroke-opacity:1;stroke-miterlimit:10;" d="M 166.160156 190.242188 L 168.144531 210.359375 "/>
<path style="fill:none;stroke-width:1.2;stroke-linecap:butt;stroke-linejoin:miter;stroke:rgb(0%,0%,0%);stroke-opacity:1;stroke-miterlimit:10;" d="M 182.589844 178.460938 L 180.605469 158.339844 "/>
<path style="fill:none;stroke-width:1.2;stroke-linecap:butt;stroke-linejoin:miter;stroke:rgb(0%,0%,0%);stroke-opacity:1;stroke-miterlimit:10;" d="M 177.660156 176.914062 L 176.070312 160.820312 "/>
<path style="fill:none;stroke-width:1.2;stroke-linecap:butt;stroke-linejoin:miter;stroke:rgb(0%,0%,0%);stroke-opacity:1;stroke-miterlimit:10;" d="M 167.164062 212.527344 L 176.375 216.699219 "/>
<path style="fill:none;stroke-width:1.2;stroke-linecap:butt;stroke-linejoin:miter;stroke:rgb(100%,0%,0%);stroke-opacity:1;stroke-miterlimit:10;" d="M 176.375 216.699219 L 185.582031 220.867188 "/>
<path style="fill:none;stroke-width:1.2;stroke-linecap:butt;stroke-linejoin:miter;stroke:rgb(0%,0%,0%);stroke-opacity:1;stroke-miterlimit:10;" d="M 169.128906 208.195312 L 178.335938 212.363281 "/>
<path style="fill:none;stroke-width:1.2;stroke-linecap:butt;stroke-linejoin:miter;stroke:rgb(100%,0%,0%);stroke-opacity:1;stroke-miterlimit:10;" d="M 178.335938 212.363281 L 187.546875 216.535156 "/>
<path style="fill:none;stroke-width:1.2;stroke-linecap:butt;stroke-linejoin:miter;stroke:rgb(0%,0%,0%);stroke-opacity:1;stroke-miterlimit:10;" d="M 168.144531 210.359375 L 159.929688 216.25 "/>
<path style="fill:none;stroke-width:1.2;stroke-linecap:butt;stroke-linejoin:miter;stroke:rgb(100%,0%,0%);stroke-opacity:1;stroke-miterlimit:10;" d="M 159.929688 216.25 L 151.714844 222.140625 "/>
<path style=" stroke:none;fill-rule:nonzero;fill:rgb(100%,100%,100%);fill-opacity:1;" d="M 182.5625 213.199219 L 190.5625 213.199219 L 190.5625 224.199219 L 182.5625 224.199219 Z M 182.5625 213.199219 "/>
<g style="fill:rgb(100%,0%,0%);fill-opacity:1;">
  <use xlink:href="#glyph0-2" x="182.5625" y="221.862305"/>
</g>
<path style="fill:none;stroke-width:1.2;stroke-linecap:butt;stroke-linejoin:miter;stroke:rgb(100%,0%,0%);stroke-opacity:1;stroke-miterlimit:10;" d="M 151.714844 222.140625 L 152.707031 232.199219 "/>
<path style="fill:none;stroke-width:1.2;stroke-linecap:butt;stroke-linejoin:miter;stroke:rgb(0%,0%,0%);stroke-opacity:1;stroke-miterlimit:10;" d="M 152.707031 232.199219 L 153.699219 242.261719 "/>
<path style=" stroke:none;fill-rule:nonzero;fill:rgb(100%,100%,100%);fill-opacity:1;" d="M 147.714844 216.640625 L 155.714844 216.640625 L 155.714844 227.640625 L 147.714844 227.640625 Z M 147.714844 216.640625 "/>
<g style="fill:rgb(100%,0%,0%);fill-opacity:1;">
  <use xlink:href="#glyph0-2" x="147.714844" y="225.303711"/>
</g>
<path style="fill:none;stroke-width:1.2;stroke-linecap:butt;stroke-linejoin:miter;stroke:rgb(0%,0%,100%);stroke-opacity:1;stroke-miterlimit:10;" d="M 141.785156 121.539062 L 133.566406 127.429688 "/>
<path style="fill:none;stroke-width:1.2;stroke-linecap:butt;stroke-linejoin:miter;stroke:rgb(0%,0%,0%);stroke-opacity:1;stroke-miterlimit:10;" d="M 133.566406 127.429688 L 125.351562 133.320312 "/>
<path style=" stroke:none;fill-rule:nonzero;fill:rgb(100%,100%,100%);fill-opacity:1;" d="M 134.785156 116.039062 L 148.785156 116.039062 L 148.785156 127.039062 L 134.785156 127.039062 Z M 134.785156 116.039062 "/>
<g style="fill:rgb(0%,0%,100%);fill-opacity:1;">
  <use xlink:href="#glyph0-1" x="134.785156" y="124.702148"/>
  <use xlink:href="#glyph0-3" x="141.762695" y="124.702148"/>
</g>
<path style="fill:none;stroke-width:1.2;stroke-linecap:butt;stroke-linejoin:miter;stroke:rgb(0%,0%,0%);stroke-opacity:1;stroke-miterlimit:10;" d="M 122.984375 133.554688 L 123.976562 143.613281 "/>
<path style="fill:none;stroke-width:1.2;stroke-linecap:butt;stroke-linejoin:miter;stroke:rgb(100%,0%,0%);stroke-opacity:1;stroke-miterlimit:10;" d="M 123.976562 143.613281 L 124.972656 153.671875 "/>
<path style="fill:none;stroke-width:1.2;stroke-linecap:butt;stroke-linejoin:miter;stroke:rgb(0%,0%,0%);stroke-opacity:1;stroke-miterlimit:10;" d="M 127.71875 133.085938 L 128.710938 143.144531 "/>
<path style="fill:none;stroke-width:1.2;stroke-linecap:butt;stroke-linejoin:miter;stroke:rgb(100%,0%,0%);stroke-opacity:1;stroke-miterlimit:10;" d="M 128.710938 143.144531 L 129.707031 153.207031 "/>
<path style="fill:none;stroke-width:1.2;stroke-linecap:butt;stroke-linejoin:miter;stroke:rgb(0%,0%,0%);stroke-opacity:1;stroke-miterlimit:10;" d="M 125.351562 133.320312 L 116.144531 129.148438 "/>
<path style="fill:none;stroke-width:1.2;stroke-linecap:butt;stroke-linejoin:miter;stroke:rgb(100%,0%,0%);stroke-opacity:1;stroke-miterlimit:10;" d="M 116.144531 129.148438 L 106.933594 124.980469 "/>
<path style=" stroke:none;fill-rule:nonzero;fill:rgb(100%,100%,100%);fill-opacity:1;" d="M 123.339844 147.941406 L 131.339844 147.941406 L 131.339844 158.941406 L 123.339844 158.941406 Z M 123.339844 147.941406 "/>
<g style="fill:rgb(100%,0%,0%);fill-opacity:1;">
  <use xlink:href="#glyph0-2" x="123.339844" y="156.604492"/>
</g>
<path style="fill:none;stroke-width:1.2;stroke-linecap:butt;stroke-linejoin:miter;stroke:rgb(100%,0%,0%);stroke-opacity:1;stroke-miterlimit:10;" d="M 106.933594 124.980469 L 98.71875 130.871094 "/>
<path style="fill:none;stroke-width:1.2;stroke-linecap:butt;stroke-linejoin:miter;stroke:rgb(0%,0%,0%);stroke-opacity:1;stroke-miterlimit:10;" d="M 98.71875 130.871094 L 90.503906 136.757812 "/>
<path style=" stroke:none;fill-rule:nonzero;fill:rgb(100%,100%,100%);fill-opacity:1;" d="M 102.933594 119.480469 L 110.933594 119.480469 L 110.933594 130.480469 L 102.933594 130.480469 Z M 102.933594 119.480469 "/>
<g style="fill:rgb(100%,0%,0%);fill-opacity:1;">
  <use xlink:href="#glyph0-2" x="102.933594" y="128.143555"/>
</g>
<path style="fill:none;stroke-width:1.2;stroke-linecap:butt;stroke-linejoin:miter;stroke:rgb(0%,0%,0%);stroke-opacity:1;stroke-miterlimit:10;" d="M 90.503906 136.757812 L 72.085938 128.417969 "/>
<path style="fill:none;stroke-width:1.2;stroke-linecap:butt;stroke-linejoin:miter;stroke:rgb(0%,0%,0%);stroke-opacity:1;stroke-miterlimit:10;" d="M 72.085938 128.417969 L 70.097656 108.300781 "/>
<path style="fill:none;stroke-width:1.2;stroke-linecap:butt;stroke-linejoin:miter;stroke:rgb(0%,0%,0%);stroke-opacity:1;stroke-miterlimit:10;" d="M 67.152344 126.875 L 65.5625 110.777344 "/>
<path style="fill:none;stroke-width:1.2;stroke-linecap:butt;stroke-linejoin:miter;stroke:rgb(0%,0%,0%);stroke-opacity:1;stroke-miterlimit:10;" d="M 55.652344 140.199219 L 72.085938 128.417969 "/>
<path style="fill:none;stroke-width:1.2;stroke-linecap:butt;stroke-linejoin:miter;stroke:rgb(0%,0%,0%);stroke-opacity:1;stroke-miterlimit:10;" d="M 70.097656 108.300781 L 51.683594 99.957031 "/>
<path style="fill:none;stroke-width:1.2;stroke-linecap:butt;stroke-linejoin:miter;stroke:rgb(0%,0%,0%);stroke-opacity:1;stroke-miterlimit:10;" d="M 51.683594 99.957031 L 35.25 111.738281 "/>
<path style="fill:none;stroke-width:1.2;stroke-linecap:butt;stroke-linejoin:miter;stroke:rgb(0%,0%,0%);stroke-opacity:1;stroke-miterlimit:10;" d="M 52.808594 105.003906 L 39.664062 114.425781 "/>
<path style="fill:none;stroke-width:1.2;stroke-linecap:butt;stroke-linejoin:miter;stroke:rgb(0%,0%,0%);stroke-opacity:1;stroke-miterlimit:10;" d="M 35.25 111.738281 L 37.234375 131.859375 "/>
<path style="fill:none;stroke-width:1.2;stroke-linecap:butt;stroke-linejoin:miter;stroke:rgb(0%,0%,0%);stroke-opacity:1;stroke-miterlimit:10;" d="M 37.234375 131.859375 L 55.652344 140.199219 "/>
<path style="fill:none;stroke-width:1.2;stroke-linecap:butt;stroke-linejoin:miter;stroke:rgb(0%,0%,0%);stroke-opacity:1;stroke-miterlimit:10;" d="M 41.039062 128.359375 L 55.773438 135.03125 "/>
<path style="fill:none;stroke-width:1.2;stroke-linecap:butt;stroke-linejoin:miter;stroke:rgb(0%,0%,0%);stroke-opacity:1;stroke-miterlimit:10;" d="M 227.535156 123.234375 L 228.527344 133.292969 "/>
<path style="fill:none;stroke-width:1.2;stroke-linecap:butt;stroke-linejoin:miter;stroke:rgb(100%,0%,0%);stroke-opacity:1;stroke-miterlimit:10;" d="M 228.527344 133.292969 L 229.519531 143.355469 "/>
<path style="fill:none;stroke-width:1.2;stroke-linecap:butt;stroke-linejoin:miter;stroke:rgb(0%,0%,0%);stroke-opacity:1;stroke-miterlimit:10;" d="M 232.269531 122.765625 L 233.261719 132.828125 "/>
<path style="fill:none;stroke-width:1.2;stroke-linecap:butt;stroke-linejoin:miter;stroke:rgb(100%,0%,0%);stroke-opacity:1;stroke-miterlimit:10;" d="M 233.261719 132.828125 L 234.253906 142.886719 "/>
<path style="fill:none;stroke-width:1.2;stroke-linecap:butt;stroke-linejoin:miter;stroke:rgb(0%,0%,0%);stroke-opacity:1;stroke-miterlimit:10;" d="M 229.902344 123 L 238.117188 117.109375 "/>
<path style="fill:none;stroke-width:1.2;stroke-linecap:butt;stroke-linejoin:miter;stroke:rgb(0%,0%,100%);stroke-opacity:1;stroke-miterlimit:10;" d="M 238.117188 117.109375 L 246.332031 111.21875 "/>
<path style=" stroke:none;fill-rule:nonzero;fill:rgb(100%,100%,100%);fill-opacity:1;" d="M 227.886719 137.621094 L 235.886719 137.621094 L 235.886719 148.621094 L 227.886719 148.621094 Z M 227.886719 137.621094 "/>
<g style="fill:rgb(100%,0%,0%);fill-opacity:1;">
  <use xlink:href="#glyph0-2" x="227.886719" y="146.28418"/>
</g>
<path style="fill:none;stroke-width:1.2;stroke-linecap:butt;stroke-linejoin:miter;stroke:rgb(0%,0%,100%);stroke-opacity:1;stroke-miterlimit:10;" d="M 246.332031 111.21875 L 255.542969 115.390625 "/>
<path style="fill:none;stroke-width:1.2;stroke-linecap:butt;stroke-linejoin:miter;stroke:rgb(0%,0%,0%);stroke-opacity:1;stroke-miterlimit:10;" d="M 255.542969 115.390625 L 264.75 119.558594 "/>
<path style=" stroke:none;fill-rule:nonzero;fill:rgb(100%,100%,100%);fill-opacity:1;" d="M 239.332031 105.71875 L 253.332031 105.71875 L 253.332031 116.71875 L 239.332031 116.71875 Z M 239.332031 105.71875 "/>
<g style="fill:rgb(0%,0%,100%);fill-opacity:1;">
  <use xlink:href="#glyph0-1" x="239.332031" y="114.381836"/>
  <use xlink:href="#glyph0-3" x="246.30957" y="114.381836"/>
</g>
</g>
</svg>

<svg xmlns="http://www.w3.org/2000/svg" xmlns:xlink="http://www.w3.org/1999/xlink" width="300pt" height="300pt" viewBox="0 0 300 300"><defs><symbol overflow="visible"><path d="M.453 1.594v-7.938h4.5v7.938zm.5-.5h3.5v-6.938h-3.5zm0 0"/></symbol><symbol overflow="visible" id="a"><path d="M.89-6.563H2.08l2.906 5.485v-5.484h.86V0H4.656L1.75-5.484V0H.89zm0 0"/></symbol><symbol overflow="visible" id="b"><path d="M3.547-5.953c-.65 0-1.164.242-1.547.72-.375.48-.563 1.13-.563 1.952 0 .835.188 1.49.563 1.967.383.48.898.72 1.547.72.644 0 1.156-.24 1.53-.72.376-.476.564-1.132.564-1.968 0-.822-.187-1.474-.562-1.954-.375-.477-.887-.72-1.53-.72zm0-.734c.914 0 1.648.312 2.203.937.55.617.828 1.438.828 2.47 0 1.042-.277 1.87-.828 2.483-.555.617-1.29.922-2.203.922-.93 0-1.668-.305-2.22-.922C.774-1.41.5-2.237.5-3.28c0-1.033.273-1.853.828-2.47.55-.625 1.29-.938 2.22-.938zm0 0"/></symbol><symbol overflow="visible" id="c"><path d="M.89-6.563h.876v2.688H5v-2.688h.89V0H5v-3.125H1.766V0H.89zm0 0"/></symbol></defs><g><path fill="#fff" d="M0 0h300v300H0z"/><path d="M211.484 114.66l1.563-20.472-7.102.703zm0 0"/><path d="M211.484 114.66l-16.433 11.78M211.484 114.66l18.418 8.34M195.05 126.44l-18.417-8.342M195.172 121.273l-14.734-6.67M176.633 118.098l-1.985-20.118M176.633 118.098l-16.43 11.78M174.648 97.98l16.43-11.78M173.52 92.934l13.144-9.422M156.23 89.64l18.418 8.34M191.078 86.2l-.992-10.06" stroke-width="1.2" stroke="#000" stroke-miterlimit="10" fill="none"/><path d="M190.086 76.14l-.992-10.062M189.094 66.078l-9.21-4.168" stroke-width="1.2" stroke="#00f" stroke-miterlimit="10" fill="none"/><path d="M179.883 61.91l-9.207-4.172" stroke-width="1.2" stroke="#000" stroke-miterlimit="10" fill="none"/><path d="M185.29 69.578l-7.368-3.336" stroke-width="1.2" stroke="#00f" stroke-miterlimit="10" fill="none"/><path d="M177.922 66.242l-7.367-3.336" stroke-width="1.2" stroke="#000" stroke-miterlimit="10" fill="none"/><path d="M186.094 60.578h7v11h-7zm0 0" fill="#fff"/><use xlink:href="#a" x="186.094" y="69.241" fill="#00f"/><path d="M170.676 57.738L154.242 69.52M154.242 69.52l1.988 20.12M159.176 71.063l1.59 16.097M160.203 129.88l1.984 20.12M160.203 129.88l-9.21-4.17" stroke-width="1.2" stroke="#000" stroke-miterlimit="10" fill="none"/><path d="M150.992 125.71l-9.207-4.17" stroke-width="1.2" stroke="#00f" stroke-miterlimit="10" fill="none"/><path d="M162.188 150l-16.43 11.78M163.316 155.043l-13.144 9.426M180.605 158.34L162.188 150M145.758 161.78l1.984 20.122M147.742 181.902l18.418 8.34M151.547 178.402l14.734 6.672M166.16 190.242l16.43-11.78M166.16 190.242l1.985 20.117M182.59 178.46l-1.985-20.12M177.66 176.914l-1.59-16.094M167.164 212.527l9.21 4.172" stroke-width="1.2" stroke="#000" stroke-miterlimit="10" fill="none"/><path d="M176.375 216.7l9.207 4.167" stroke-width="1.2" stroke="#f00" stroke-miterlimit="10" fill="none"/><path d="M169.13 208.195l9.206 4.168" stroke-width="1.2" stroke="#000" stroke-miterlimit="10" fill="none"/><path d="M178.336 212.363l9.21 4.172" stroke-width="1.2" stroke="#f00" stroke-miterlimit="10" fill="none"/><path d="M168.145 210.36l-8.215 5.89" stroke-width="1.2" stroke="#000" stroke-miterlimit="10" fill="none"/><path d="M159.93 216.25l-8.215 5.89" stroke-width="1.2" stroke="#f00" stroke-miterlimit="10" fill="none"/><path d="M182.563 213.2h8v11h-8zm0 0" fill="#fff"/><use xlink:href="#b" x="182.563" y="221.862" fill="#f00"/><path d="M151.715 222.14l.992 10.06" stroke-width="1.2" stroke="#f00" stroke-miterlimit="10" fill="none"/><path d="M152.707 232.2l.992 10.062" stroke-width="1.2" stroke="#000" stroke-miterlimit="10" fill="none"/><path d="M147.715 216.64h8v11h-8zm0 0" fill="#fff"/><use xlink:href="#b" x="147.715" y="225.304" fill="#f00"/><path d="M141.785 121.54l-8.22 5.89" stroke-width="1.2" stroke="#00f" stroke-miterlimit="10" fill="none"/><path d="M133.566 127.43l-8.214 5.89" stroke-width="1.2" stroke="#000" stroke-miterlimit="10" fill="none"/><path d="M134.785 116.04h14v11h-14zm0 0" fill="#fff"/><g fill="#00f"><use xlink:href="#a" x="134.785" y="124.702"/><use xlink:href="#c" x="141.763" y="124.702"/></g><path d="M122.984 133.555l.993 10.058" stroke-width="1.2" stroke="#000" stroke-miterlimit="10" fill="none"/><path d="M123.977 143.613l.996 10.06" stroke-width="1.2" stroke="#f00" stroke-miterlimit="10" fill="none"/><path d="M127.72 133.086l.99 10.06" stroke-width="1.2" stroke="#000" stroke-miterlimit="10" fill="none"/><path d="M128.71 143.145l.997 10.062" stroke-width="1.2" stroke="#f00" stroke-miterlimit="10" fill="none"/><path d="M125.352 133.32l-9.207-4.172" stroke-width="1.2" stroke="#000" stroke-miterlimit="10" fill="none"/><path d="M116.145 129.148l-9.21-4.168" stroke-width="1.2" stroke="#f00" stroke-miterlimit="10" fill="none"/><path d="M123.34 147.94h8v11h-8zm0 0" fill="#fff"/><use xlink:href="#b" x="123.34" y="156.604" fill="#f00"/><path d="M106.934 124.98l-8.215 5.89" stroke-width="1.2" stroke="#f00" stroke-miterlimit="10" fill="none"/><path d="M98.72 130.87l-8.216 5.888" stroke-width="1.2" stroke="#000" stroke-miterlimit="10" fill="none"/><path d="M102.934 119.48h8v11h-8zm0 0" fill="#fff"/><use xlink:href="#b" x="102.934" y="128.144" fill="#f00"/><path d="M90.504 136.758l-18.418-8.34M72.086 128.418L70.098 108.3M67.152 126.875l-1.59-16.098M55.652 140.2l16.434-11.782M70.098 108.3l-18.414-8.343M51.684 99.957l-16.434 11.78M52.81 105.004l-13.146 9.422M35.25 111.738l1.984 20.12M37.234 131.86l18.418 8.34M41.04 128.36l14.733 6.67M227.535 123.234l.992 10.06" stroke-width="1.2" stroke="#000" stroke-miterlimit="10" fill="none"/><path d="M228.527 133.293l.993 10.062" stroke-width="1.2" stroke="#f00" stroke-miterlimit="10" fill="none"/><path d="M232.27 122.766l.992 10.062" stroke-width="1.2" stroke="#000" stroke-miterlimit="10" fill="none"/><path d="M233.262 132.828l.992 10.06" stroke-width="1.2" stroke="#f00" stroke-miterlimit="10" fill="none"/><path d="M229.902 123l8.215-5.89" stroke-width="1.2" stroke="#000" stroke-miterlimit="10" fill="none"/><path d="M238.117 117.11l8.215-5.89" stroke-width="1.2" stroke="#00f" stroke-miterlimit="10" fill="none"/><path d="M227.887 137.62h8v11h-8zm0 0" fill="#fff"/><use xlink:href="#b" x="227.887" y="146.284" fill="#f00"/><path d="M246.332 111.22l9.21 4.17" stroke-width="1.2" stroke="#00f" stroke-miterlimit="10" fill="none"/><path d="M255.543 115.39l9.207 4.17" stroke-width="1.2" stroke="#000" stroke-miterlimit="10" fill="none"/><path d="M239.332 105.72h14v11h-14zm0 0" fill="#fff"/><g fill="#00f"><use xlink:href="#a" x="239.332" y="114.382"/><use xlink:href="#c" x="246.31" y="114.382"/></g></g></svg>
